src/icons/typescript.svg

<svg width="69" height="69" viewBox="0 0 69 69" fill="none" xmlns="http://www.w3.org/2000/svg">
<g clip-path="url(#clip0_67_356)">
<path d="M69 34.5C69 15.4462 53.5538 0 34.5 0C15.4462 0 0 15.4462 0 34.5C0 53.5538 15.4462 69 34.5 69C53.5538 69 69 53.5538 69 34.5Z" fill="#3178C6"/>
<path fill-rule="evenodd" clip-rule="evenodd" d="M37.8592 43.3169V50.0633C38.9419 50.6255 40.2221 51.0473 41.7 51.3285C43.1781 51.6096 44.736 51.75 46.3737 51.75C47.9696 51.75 49.4859 51.5953 50.9223 51.2861C52.3586 50.977 53.6181 50.4676 54.7006 49.7576C55.783 49.0479 56.6401 48.1202 57.2716 46.9747C57.9031 45.8292 58.2188 44.4134 58.2188 42.7266C58.2188 41.5038 58.0384 40.4321 57.6775 39.5114C57.3166 38.5909 56.7962 37.7721 56.1161 37.0554C55.4361 36.3385 54.6208 35.6956 53.6701 35.1264C52.7195 34.5571 51.6473 34.0194 50.4538 33.5135C49.5795 33.148 48.7954 32.7931 48.1014 32.4489C47.4076 32.1044 46.8178 31.7532 46.3319 31.3947C45.8462 31.0363 45.4715 30.6568 45.2079 30.2562C44.9441 29.8557 44.8123 29.4024 44.8123 28.8964C44.8123 28.4326 44.9303 28.0145 45.1662 27.642C45.4023 27.2696 45.7351 26.9497 46.1653 26.6827C46.5958 26.4156 47.123 26.2083 47.7475 26.0607C48.372 25.9132 49.066 25.8394 49.8293 25.8394C50.3846 25.8394 50.9708 25.8815 51.5883 25.9659C52.206 26.0502 52.827 26.1802 53.4516 26.3559C54.0761 26.5316 54.6833 26.753 55.273 27.02C55.8628 27.2871 56.4075 27.5962 56.9072 27.9477V21.6439C55.894 21.2504 54.7873 20.9587 53.5869 20.769C52.3864 20.5792 51.0091 20.4844 49.4547 20.4844C47.8725 20.4844 46.3737 20.6566 44.9581 21.0009C43.5425 21.3453 42.297 21.8829 41.2213 22.6137C40.1456 23.3446 39.2958 24.2757 38.6713 25.4072C38.0468 26.5386 37.7344 27.8914 37.7344 29.4657C37.7344 31.4756 38.3069 33.1901 39.4518 34.6097C40.5968 36.0293 42.335 37.2312 44.6667 38.215C45.5826 38.5944 46.4362 38.9669 47.2273 39.3324C48.0181 39.6976 48.7016 40.0771 49.2776 40.4707C49.8536 40.8644 50.308 41.293 50.6411 41.7569C50.9743 42.2207 51.1409 42.7477 51.1409 43.3379C51.1409 43.7738 51.0368 44.1778 50.8285 44.5503C50.6204 44.9228 50.3048 45.2459 49.8813 45.5201C49.4582 45.7942 48.9307 46.0084 48.2992 46.1632C47.6677 46.3176 46.9286 46.395 46.0823 46.395C44.639 46.395 43.2094 46.1384 41.7938 45.6254C40.3782 45.1125 39.0667 44.343 37.8592 43.3169ZM26.336 26.5599H35.0391V21.0234H10.7812V26.5599H19.4417V51.2109H26.336V26.5599Z" fill="white"/>
</g>
<defs>
<clipPath id="clip0_67_356">
<rect width="69" height="69" fill="white"/>
</clipPath>
</defs>
</svg>

<svg xmlns="http://www.w3.org/2000/svg" width="69" height="69" fill="none"><g clip-path="url(#a)"><path fill="#3178C6" d="M69 34.5C69 15.446 53.554 0 34.5 0 15.446 0 0 15.446 0 34.5 0 53.554 15.446 69 34.5 69 53.554 69 69 53.554 69 34.5"/><path fill="#fff" fill-rule="evenodd" d="M37.86 43.317v6.746c1.082.563 2.362.984 3.84 1.265 1.478.282 3.036.422 4.674.422 1.596 0 3.112-.155 4.548-.464 1.437-.309 2.696-.818 3.779-1.528a7.75 7.75 0 0 0 2.57-2.783c.632-1.146.948-2.562.948-4.248 0-1.223-.18-2.295-.541-3.216a7.526 7.526 0 0 0-1.562-2.456 11.45 11.45 0 0 0-2.446-1.929 26.056 26.056 0 0 0-3.216-1.612 40.365 40.365 0 0 1-2.353-1.065 11.916 11.916 0 0 1-1.77-1.054c-.485-.359-.86-.738-1.123-1.139a2.417 2.417 0 0 1-.396-1.36c0-.463.118-.881.354-1.254a3.074 3.074 0 0 1 1-.96c.43-.266.957-.474 1.582-.621a9.068 9.068 0 0 1 2.081-.222 13.735 13.735 0 0 1 3.622.516c.625.177 1.232.398 1.822.665.59.267 1.134.576 1.634.928v-6.304a16.089 16.089 0 0 0-3.32-.875c-1.2-.19-2.578-.285-4.132-.285-1.582 0-3.081.173-4.497.517-1.416.344-2.661.882-3.737 1.613a8.017 8.017 0 0 0-2.55 2.793c-.624 1.132-.937 2.484-.937 4.059 0 2.01.573 3.724 1.718 5.144s2.883 2.621 5.215 3.605c.916.38 1.77.752 2.56 1.117.791.366 1.475.745 2.05 1.139.577.393 1.031.822 1.364 1.286.333.464.5.99.5 1.58 0 .437-.104.84-.312 1.213-.209.373-.524.696-.948.97-.423.274-.95.488-1.582.643-.631.155-1.37.232-2.217.232-1.443 0-2.873-.257-4.288-.77a12.76 12.76 0 0 1-3.935-2.308M26.335 26.56h8.703v-5.537H10.781v5.537h8.66v24.65h6.895V26.56" clip-rule="evenodd"/></g><defs><clipPath id="a"><path fill="#fff" d="M0 0h69v69H0z"/></clipPath></defs></svg>
